X: 337
T: Bull at the Wagon
C:Charles E. Trevathan, 1895
B: canberra pickers and fiddlers
B: tunes
M:C|
L:1/8
R: Reel
Q: 1/4=100
K:A
V:1 
AB|c(ecA) c(ecA)|cea(g fe)cA|B(cBA) B(cBA)|Bcf(g fe)cB |
c(ecA) c(ecA) | AAcd e(dcA) |[E3B3] A a(gfe)|cAB(c A2) :|
|: (A|A)Bce a(gfb)|gef(g fe)ce| f(gfe) cAFA | B2 (FB B4) | 
ABce a(gfb)|gef(g fe)ce| f(gfe) cBAG|A2 (EA A3) :|
|: [A,3E3] z[CE]| [B,4E4] | EFGA Bcdf | e(dcd) e(d c2)|
[A,3E3] z[CE]|[B,4E4]|EFGA BcdB| cAB(G A2) :||
% abcbook-tune_id 6298c2457cfa61c20ef9efdf
% abcbook-tune_composer_id 
% abcbook-link-0 https://www.youtube.com/watch?v=QApznZsvlKg
% abcbook-link-title-0 Bull at the Wagon
% abcbook-link-1 https://www.youtube.com/watch?v=qe6EOcgPs0k
% abcbook-link-title-1 Bull At The Wagon - The Lewis Brothers
% abcbook-link-2 https://www.youtube.com/watch?v=hfNouhv0u_0
% abcbook-link-title-2 Bull at the Wagon
% abcbook-boost 0
% abcbook-difficulty 0
% abcbook-tags old time tunes
% abcbook-tablature 
% abcbook-transpose 
% abcbook-tuning AEAE
% abcbook-lastupdated 1738996993595
% abcbook-src-url 
% abcbook-soundfonts 
% abcbook-repeats 1


